X:1
T:Title
%%score { ( 1 3 ) | 2 }
L:1/8
Q:1/4=90
M:6/8
K:Ab
V:1 treble nm="Grand Piano"
V:3 treble 
V:2 bass 
V:1
 CC[B,D] [CE][Ec]>[DG] | BA>F [CE]3 | BGE [CE][CA]>[Ec] | [=Dc][DB][DA] B2 E | EFG Ac>G | %5
w: Fannie~Birdsall * * * * *|||||
 BAF [CE]3 |[M:13/16] [Ec][_GB][CGA][DFA][Fd]3/2[DB] |[M:3/4] AG B [CA]3 | c4 z2 | E4 z2 | %10
w: |||||
 A-[CA-] [CA-][CA] [DB][CA] | G6 | d4 z2 | c4 z2 | G4 z2 | [DE]6 | E4 z2 | A4 z2 | c4 z2 | d6 | %20
w: ||||||||||
 d4 z2 | e4 z2 | c4 z2 | [CA]6 |] %24
w: ||||
V:2
 [A,,E,A,][A,,E,A,][A,,E,] [A,,A,][A,,A,]>[A,,A,] | [D,F,D][D,F,D]>[D,A,D] [A,,A,]3 | %2
 [E,G,D][E,B,D][E,G,D] [A,,A,][A,,A,]>[A,,A,] | [B,,A,][B,,A,][B,,A,] [E,G,E]2 [E,G,=D] | %4
 [E,G,D][E,A,D][E,B,D] [A,C][A,E]>[A,D] | [D,F,D][D,F,D][D,A,D] [A,,A,]3 | %6
[M:13/16] [A,,A,][A,,A,]A,,A,,[D,A,]3/2[B,,F,] |[M:3/4] [E,C][E,B,] [E,D] [A,,E,]3 | %8
 [A,,A,][A,,A,] [A,,A,][A,,A,] [A,,A,][A,,A,] | [A,,A,][A,,A,] [A,,A,][A,,A,] z2 | %10
 [A,,E,][A,,E,] [A,,E,][A,,E,] [A,,E,][A,,E,] | [E,B,D][E,B,] [E,B,] [E,B,]3 | %12
 [E,G,E][E,G,] [E,G,][E,G,] [E,A,E][E,G,E] | [A,E]A, A,A, z2 | [E,B,E]2 [E,B,] [B,,A,]2 [B,,A,] | %15
 [E,G,]6 | [A,,A,][A,,A,] [A,,A,][A,,A,] [A,,A,][A,,A,] | [A,,E,][A,,E,] [A,,E,][A,,E,] z2 | %18
 [A,,A,][A,,A,] [A,,A,][A,,A,] [A,,A,][A,,A,] | [D,A,][D,A,] [D,A,] [D,A,]3 | %20
 [D,A,][D,A,] [D,A,][D,A,] [D,A,][D,A,] | [C,A,][C,A,] [C,A,] [F,A,C]2 [F,A,=D] | %22
 [E,A,E]2 [E,A,] [E,G,D]2 [E,G,D] | [A,,A,]6 |] %24
V:3
 x6 | x6 | x6 | x6 | x6 | x6 |[M:13/16] x13/2 |[M:3/4] x6 | EE EE [DB][CA] | CC CC FG | .C2 z2 z2 | %11
 z D D D3 | z E EE cB | z E EE BA | z2 E [DF]2 [DF] | x6 | CC CC [DF][DG] | CC CC GA | %18
 EE EE [_GB][Gc] | FF F F3 | FF FF [Fc][FB] | EE E A2 B | z2 E B2 B | x6 |] %24

